images/Group-6.svg

<svg width="77" height="67" viewBox="0 0 77 67" fill="none" xmlns="http://www.w3.org/2000/svg">
<path d="M12.4383 24.9961H12.4075C11.8633 24.997 11.3247 25.1054 10.8227 25.3152C10.3206 25.525 9.86506 25.832 9.48215 26.2186C9.09924 26.6052 8.79658 27.0637 8.59159 27.5678C8.38661 28.0718 8.28334 28.6114 8.28773 29.1555C8.29378 30.2562 8.73211 31.3105 9.50823 32.091C10.2844 32.8716 11.3361 33.3159 12.4368 33.3282H12.4676C13.5761 33.1739 14.615 32.8434 15.393 32.054C15.777 31.663 16.0802 31.2 16.285 30.6917C16.4899 30.1833 16.5924 29.6395 16.5867 29.0915C16.5776 27.999 16.1359 26.9546 15.3584 26.187C14.5808 25.4195 13.5309 24.9912 12.4383 24.9961ZM12.4521 31.0936C11.9248 31.096 11.4178 30.8904 11.0412 30.5214C10.8548 30.3425 10.7063 30.128 10.6044 29.8907C10.5025 29.6533 10.4493 29.3979 10.448 29.1396C10.4461 28.8794 10.4958 28.6213 10.5943 28.3804C10.6927 28.1394 10.838 27.9204 11.0216 27.736C11.2052 27.5515 11.4236 27.4053 11.6641 27.3058C11.9046 27.2063 12.1625 27.1555 12.4227 27.1563H12.4382C12.6969 27.1517 12.9539 27.1985 13.1944 27.294C13.4349 27.3895 13.654 27.5318 13.839 27.7127C14.024 27.8935 14.1713 28.1093 14.2723 28.3476C14.3733 28.5858 14.4259 28.8417 14.4272 29.1004C14.4285 29.361 14.3785 29.6193 14.28 29.8606C14.1814 30.1018 14.0363 30.3213 13.8528 30.5064C13.6694 30.6915 13.4513 30.8387 13.211 30.9394C12.9706 31.0402 12.7128 31.0926 12.4522 31.0936H12.4521Z" fill="#8A1A10"/>
<path d="M70.6754 23.4994C70.6813 23.4524 70.684 23.4051 70.6837 23.3578C70.6823 21.6115 70.0487 19.9248 68.8999 18.6096C68.6043 18.2747 68.2749 17.9712 67.917 17.7039L71.6947 17.6747C71.8409 17.6736 71.9853 17.6428 72.1192 17.5842C72.2532 17.5256 72.3738 17.4404 72.4739 17.3338C72.5739 17.2272 72.6513 17.1014 72.7013 16.964C72.7513 16.8267 72.7729 16.6806 72.7647 16.5346C72.6929 15.6291 72.509 14.736 72.2173 13.8758C71.5788 12.006 69.6111 10.8008 67.1957 10.8008H67.1417C65.6776 10.8008 63.0241 10.8256 61.81 10.8298L59.3826 6.42122C57.6876 3.43419 55.2253 0 51.1788 0H51.1258L21.6437 0.231445C18.3208 0.255824 15.3888 2.58416 13.3853 6.7761L10.9182 11.2276C9.70715 11.234 7.02254 11.2504 5.53944 11.2614C3.09939 11.2793 1.12516 12.5147 0.50936 14.4073C0.23042 15.2705 0.0596467 16.165 0.000951976 17.0703C-0.00515514 17.2164 0.0181696 17.3623 0.0695402 17.4992C0.120911 17.6361 0.199279 17.7613 0.299989 17.8674C0.400698 17.9734 0.521694 18.0581 0.655787 18.1165C0.789881 18.1748 0.934335 18.2056 1.08057 18.207H1.08998L4.79912 18.1686C3.19058 19.4184 2.16497 21.4851 2.18256 23.8653C2.18289 23.9101 2.18609 23.9549 2.19212 23.9993L4.02347 37.6579C4.04879 38.5974 4.40025 39.4988 5.01757 40.2075C5.63488 40.9162 6.47957 41.388 7.40674 41.542L7.43899 45.9155C7.44437 46.5905 7.71674 47.2359 8.19657 47.7107C8.67641 48.1855 9.32468 48.451 9.9997 48.4492H10.0191L14.5158 48.4202C15.1945 48.4148 15.8434 48.1404 16.32 47.6571C16.7966 47.1738 17.062 46.5211 17.0579 45.8424L17.0261 41.5288L30.0001 41.4338C29.9572 42.0114 29.9353 42.5921 29.9344 43.176C29.9344 55.9379 40.3169 66.3205 53.0789 66.3205C65.841 66.3205 76.2234 55.9382 76.2234 43.176C76.2396 37.397 74.0776 31.8242 70.1682 27.5682L70.6754 23.4994ZM67.1574 12.9609H67.1938C68.6486 12.9609 69.8431 13.609 70.1727 14.5735C70.278 14.8844 70.3656 15.201 70.435 15.5218L64.4248 15.5692L62.9999 12.9852C64.3244 12.9799 66.0689 12.9609 67.1577 12.9609H67.1574ZM15.2904 7.8011C15.3013 7.7815 15.3115 7.76144 15.3212 7.74123C16.2648 5.75851 18.3427 2.41536 21.6598 2.39098L51.1417 2.16016H51.1791C53.4974 2.16016 55.3914 3.76639 57.4977 7.47815L62.4872 16.5229L57.2084 16.5652C56.9811 14.8171 56.1222 13.2126 54.7935 12.0543C53.4647 10.896 51.7581 10.2638 49.9954 10.2771C48.2327 10.2904 46.5358 10.9482 45.2247 12.1264C43.9136 13.3047 43.0789 14.9219 42.878 16.6732L10.2356 16.9145L15.2904 7.8011ZM55.026 16.5846L45.0604 16.658C45.2579 15.4847 45.8626 14.4184 46.7682 13.6467C47.6739 12.875 48.8225 12.4471 50.0124 12.4384C51.2022 12.4296 52.3571 12.8405 53.274 13.5988C54.1909 14.3571 54.8113 15.4143 55.026 16.5846ZM2.31648 16.0236C2.38077 15.7032 2.46319 15.3866 2.56336 15.0756C2.88137 14.0976 4.08349 13.4334 5.55471 13.4226C6.64621 13.4146 8.3893 13.4044 9.71579 13.3971L8.28777 15.9717L2.31648 16.0236ZM14.4999 46.2641L10.0032 46.2972C9.89733 46.2963 9.79576 46.255 9.71919 46.1818C9.68162 46.145 9.65172 46.101 9.6312 46.0526C9.61068 46.0041 9.59994 45.9521 9.5996 45.8995L9.56782 41.5849L14.8659 41.5458L14.8977 45.8604C14.8984 45.9667 14.8568 46.0688 14.7823 46.1445C14.7077 46.2202 14.6062 46.2632 14.4999 46.2641ZM30.2632 39.2706L8.07778 39.4355C7.57958 39.4364 7.10107 39.2411 6.74588 38.8918C6.5691 38.7193 6.42827 38.5135 6.33155 38.2863C6.23482 38.059 6.18413 37.8149 6.18239 37.5679C6.1819 37.5226 6.17855 37.4773 6.17236 37.4324L4.34256 23.7807C4.3512 20.9463 6.27682 19.224 8.21788 19.0944C8.27553 19.112 8.33451 19.1248 8.39424 19.1328H8.40226L64.2764 18.6949C64.2844 18.6949 64.2918 18.6699 64.3003 18.6699H64.3373C64.8976 18.6733 65.4507 18.7972 65.9589 19.0331C66.4671 19.269 66.9187 19.6115 67.2829 20.0373C68.0652 20.9477 68.5039 22.1033 68.523 23.3035L68.2272 25.6759C64.307 22.2836 59.3618 20.3053 54.1836 20.0578C49.0054 19.8103 43.894 21.308 39.6682 24.311C37.8927 25.5747 36.3036 27.0816 34.9476 28.7876L34.9296 26.3315C34.9276 26.0451 34.8118 25.7712 34.6078 25.5701C34.4038 25.369 34.1283 25.2571 33.8418 25.2592C33.5553 25.2612 33.2814 25.377 33.0803 25.581C32.8792 25.785 32.7674 26.0605 32.7694 26.347L32.7903 29.1726C32.7925 29.4573 32.9074 29.7296 33.1098 29.9299C33.3121 30.1302 33.5856 30.2423 33.8703 30.2416H33.8779C32.0447 32.9597 30.8126 36.0377 30.2637 39.2699L30.2632 39.2706ZM74.063 43.1763C74.063 54.747 64.6495 64.1607 53.0786 64.1607C41.5077 64.1607 32.0942 54.7472 32.0942 43.1763C32.0942 37.6109 34.3051 32.2734 38.2404 28.3381C42.1757 24.4028 47.5132 22.1919 53.0786 22.1919C58.644 22.1919 63.9815 24.4028 67.9168 28.3381C71.8521 32.2734 74.063 37.6109 74.063 43.1763Z" fill="#8A1A10"/>
<path d="M28.6101 25.3048H28.602C28.4603 25.3051 28.3199 25.3334 28.1892 25.3882C28.0584 25.443 27.9398 25.5232 27.8401 25.624C27.7404 25.7248 27.6617 25.8444 27.6085 25.9758C27.5552 26.1072 27.5285 26.2478 27.5298 26.3896L27.5507 29.1941C27.5522 29.334 27.5814 29.4722 27.6366 29.6008C27.6919 29.7294 27.772 29.8457 27.8724 29.9431C27.9728 30.0406 28.0915 30.1172 28.2217 30.1685C28.3518 30.2199 28.4909 30.2449 28.6307 30.2423H28.6388C28.7795 30.2441 28.9193 30.2179 29.0498 30.165C29.1803 30.1122 29.2989 30.0339 29.3988 29.9346C29.4986 29.8354 29.5776 29.7172 29.6313 29.587C29.6849 29.4569 29.712 29.3173 29.711 29.1765L29.6901 26.3625C29.6888 26.222 29.6598 26.0833 29.6048 25.9541C29.5498 25.8249 29.4698 25.7078 29.3695 25.6096C29.2692 25.5113 29.1505 25.4338 29.0202 25.3815C28.8898 25.3292 28.7505 25.3031 28.6101 25.3048Z" fill="#8A1A10"/>
<path d="M23.3711 25.3047H23.3631C23.0747 25.3097 22.8001 25.4287 22.5992 25.6356C22.3983 25.8425 22.2874 26.1205 22.2908 26.4088L22.3118 29.2809C22.3123 29.5706 22.4252 29.8487 22.6266 30.0568C22.8281 30.2649 23.1024 30.3867 23.3919 30.3965H23.3999C23.6902 30.387 23.9652 30.264 24.1657 30.0539C24.3662 29.8437 24.4763 29.5633 24.4721 29.2729L24.4512 26.4105C24.4503 26.1219 24.3371 25.845 24.1354 25.6385C23.9338 25.4321 23.6596 25.3123 23.3711 25.3047Z" fill="#8A1A10"/>
<path d="M57.7276 32.5405L57.8237 31.6164C57.8394 31.4638 57.8233 31.3097 57.7765 31.1636C57.7297 31.0176 57.6531 30.8828 57.5517 30.7678C57.451 30.6537 57.3277 30.5618 57.1896 30.498C57.0514 30.4342 56.9015 30.4 56.7493 30.3975H49.4079C49.2556 30.4009 49.1058 30.4358 48.9677 30.5C48.8295 30.5641 48.7062 30.6561 48.6053 30.7702C48.5044 30.8843 48.4282 31.018 48.3815 31.1629C48.3348 31.3078 48.3185 31.4609 48.3337 31.6124L48.4298 32.5433C45.4674 33.5647 42.888 35.4672 41.0373 37.9958C39.108 40.643 37.9829 43.7904 37.7971 47.0607H36.8986C36.6075 47.0651 36.3296 47.1829 36.124 47.3889C35.9184 47.5949 35.8012 47.8731 35.7974 48.1641V51.9034C35.7974 52.4999 36.3018 52.924 36.8983 52.924H69.2593C69.8558 52.924 70.3599 52.4999 70.3599 51.9034V48.1641C70.3561 47.8731 70.2391 47.5951 70.0335 47.389C69.828 47.183 69.5502 47.0652 69.2593 47.0607H68.3622C68.1798 43.7857 67.0536 40.6333 65.1195 37.9841C63.2669 35.4596 60.6881 33.5605 57.7276 32.5405ZM47.9868 35.0102C48.5876 34.752 49.2059 34.5369 49.8371 34.3663C50.0888 34.2977 50.3083 34.1428 50.4573 33.9288C50.6063 33.7147 50.6753 33.4551 50.6523 33.1953L50.606 32.5568H55.5515L55.4869 33.1953C55.4678 33.456 55.5407 33.7152 55.6929 33.9277C55.8452 34.1402 56.0671 34.2926 56.3201 34.3584C56.9514 34.5321 57.5697 34.7499 58.1704 35.0102V36.2558C58.1704 39.4266 56.1551 42.2624 53.2291 43.4212C50.1305 42.3411 47.9868 39.4376 47.9868 36.1438V35.0102ZM68.1997 50.7639H37.9575V49.2209H68.1997V50.7639ZM39.9603 47.0607C40.1429 44.2535 41.1188 41.5559 42.7745 39.2816C43.6457 38.1019 44.7017 37.0705 45.9016 36.2274C45.9166 38.2961 46.5827 40.3075 47.8056 41.9761C49.0284 43.6448 50.7457 44.8859 52.7139 45.5232L52.9144 45.5898C53.0225 45.6254 53.1355 45.6436 53.2493 45.6438C53.3807 45.644 53.5114 45.6243 53.637 45.5854C55.5839 44.9185 57.2746 43.6616 58.4742 41.9894C59.6738 40.3173 60.3227 38.3129 60.3306 36.255V36.2307C61.4958 37.0963 62.5356 38.1193 63.4201 39.2703C65.0757 41.5048 66.0212 44.2834 66.1986 47.0607H39.9603Z" fill="#8A1A10"/>
<path d="M51.5151 40.2715H54.9823C55.2688 40.2715 55.5435 40.1577 55.7461 39.9551C55.9486 39.7526 56.0624 39.4779 56.0624 39.1914C56.0624 38.905 55.9486 38.6302 55.7461 38.4277C55.5435 38.2251 55.2688 38.1113 54.9823 38.1113H51.5151C51.2287 38.1113 50.954 38.2251 50.7514 38.4277C50.5489 38.6302 50.4351 38.905 50.4351 39.1914C50.4351 39.4779 50.5489 39.7526 50.7514 39.9551C50.954 40.1577 51.2287 40.2715 51.5151 40.2715Z" fill="#8A1A10"/>
<path d="M51.5151 37.1855H54.9823C55.2688 37.1855 55.5435 37.0718 55.7461 36.8692C55.9486 36.6666 56.0624 36.3919 56.0624 36.1055C56.0624 35.819 55.9486 35.5443 55.7461 35.3417C55.5435 35.1392 55.2688 35.0254 54.9823 35.0254H51.5151C51.2287 35.0254 50.954 35.1392 50.7514 35.3417C50.5489 35.5443 50.4351 35.819 50.4351 36.1055C50.4351 36.3919 50.5489 36.6666 50.7514 36.8692C50.954 37.0718 51.2287 37.1855 51.5151 37.1855Z" fill="#8A1A10"/>
</svg>

<svg width="77" height="67" fill="none" xmlns="http://www.w3.org/2000/svg"><path d="M12.438 24.996h-.03a4.128 4.128 0 00-4.12 4.16 4.196 4.196 0 004.149 4.172h.03c1.11-.154 2.148-.485 2.926-1.274a4.167 4.167 0 001.194-2.963 4.13 4.13 0 00-4.149-4.095zm.014 6.098a2.003 2.003 0 01-1.41-.573 1.93 1.93 0 01-.594-1.381 1.968 1.968 0 011.975-1.984h.015a1.955 1.955 0 011.842 2.705 1.983 1.983 0 01-1.828 1.233z" fill="#8A1A10"/><path d="M70.675 23.5a1.14 1.14 0 00.009-.142A7.226 7.226 0 0068.9 18.61a6.495 6.495 0 00-.983-.906l3.778-.03a1.079 1.079 0 001.07-1.14 10.982 10.982 0 00-.548-2.658c-.638-1.87-2.606-3.075-5.021-3.075h-.054c-1.464 0-4.118.025-5.332.029l-2.427-4.41C57.688 3.434 55.225 0 51.179 0h-.053L21.644.231c-3.323.025-6.255 2.353-8.259 6.545l-2.467 4.452c-1.21.006-3.895.022-5.379.033-2.44.018-4.414 1.254-5.03 3.146-.279.864-.45 1.758-.508 2.663a1.091 1.091 0 001.08 1.137h.009l3.71-.038c-1.61 1.25-2.635 3.316-2.617 5.696 0 .045.003.09.01.134l1.83 13.659a4.048 4.048 0 003.384 3.884l.032 4.373a2.554 2.554 0 002.56 2.534h.02l4.497-.029a2.563 2.563 0 002.542-2.578l-.032-4.313L30 41.434a24.013 24.013 0 00-.066 1.742c0 12.762 10.383 23.144 23.145 23.144s23.144-10.382 23.144-23.144a22.977 22.977 0 00-6.055-15.608l.507-4.069zm-3.518-10.54h.037c1.455 0 2.65.649 2.979 1.613.105.311.193.628.262.949l-6.01.047L63 12.985c1.324-.005 3.069-.024 4.158-.024zM15.29 7.802c.011-.02.022-.04.031-.06.944-1.982 3.022-5.326 6.339-5.35l29.482-.23h.037c2.318 0 4.212 1.605 6.319 5.317l4.99 9.045-5.28.042a7.22 7.22 0 00-14.33.108l-32.642.242L15.29 7.8zm39.736 8.784l-9.966.073a5.06 5.06 0 019.966-.073zm-52.71-.561c.065-.32.147-.637.247-.948.318-.978 1.52-1.643 2.992-1.653 1.091-.008 2.834-.019 4.16-.026l-1.427 2.575-5.972.052zM14.5 46.264l-4.497.033A.399.399 0 019.6 45.9l-.031-4.314 5.298-.04.032 4.315a.401.401 0 01-.398.404zm15.763-6.993l-22.185.164a1.895 1.895 0 01-1.746-1.149 1.868 1.868 0 01-.15-.718.899.899 0 00-.01-.136l-1.83-13.651c.01-2.835 1.935-4.557 3.876-4.687.058.018.117.03.176.039h.008l55.874-.438c.008 0 .016-.025.024-.025h.037a3.908 3.908 0 012.946 1.367 5.137 5.137 0 011.24 3.267l-.296 2.372a23.15 23.15 0 00-33.28 3.112l-.017-2.457a1.08 1.08 0 10-2.16.016l.02 2.826a1.077 1.077 0 001.08 1.069h.008a23.047 23.047 0 00-3.614 9.028zm43.8 3.905c0 11.571-9.413 20.985-20.984 20.985-11.571 0-20.985-9.414-20.985-20.985a20.984 20.984 0 0141.969 0z" fill="#8A1A10"/><path d="M28.61 25.305h-.008a1.074 1.074 0 00-1.072 1.085l.02 2.804a1.06 1.06 0 001.08 1.048h.009a1.058 1.058 0 001.072-1.066l-.02-2.813a1.068 1.068 0 00-1.08-1.058zm-5.239 0h-.008a1.091 1.091 0 00-1.072 1.104l.02 2.872a1.118 1.118 0 001.08 1.116h.009a1.109 1.109 0 001.072-1.124l-.02-2.863a1.11 1.11 0 00-1.08-1.105zm34.357 7.235l.096-.924a1.111 1.111 0 00-.634-1.118 1.093 1.093 0 00-.44-.1h-7.342a1.102 1.102 0 00-1.074 1.214l.096.931a15.37 15.37 0 00-7.393 5.453 17.031 17.031 0 00-3.24 9.065H36.9a1.118 1.118 0 00-1.102 1.103v3.74c0 .596.505 1.02 1.101 1.02H69.26c.597 0 1.1-.424 1.1-1.02v-3.74a1.118 1.118 0 00-1.1-1.103h-.897a16.996 16.996 0 00-3.242-9.077 15.385 15.385 0 00-7.392-5.444zm-9.741 2.47c.6-.258 1.219-.473 1.85-.644a1.112 1.112 0 00.815-1.17l-.046-.64h4.945l-.064.64a1.118 1.118 0 00.833 1.162c.631.174 1.25.392 1.85.652v1.246c0 3.17-2.015 6.006-4.94 7.165-3.1-1.08-5.243-3.983-5.243-7.277V35.01zM68.2 50.764H37.958V49.22H68.2v1.543zM39.96 47.06a14.855 14.855 0 012.815-7.78 13.626 13.626 0 013.127-3.054 9.846 9.846 0 006.812 9.296l.2.067c.108.035.221.054.335.054.132 0 .262-.02.388-.059a9.902 9.902 0 006.694-9.33v-.024a15.717 15.717 0 013.09 3.04c1.655 2.234 2.6 5.012 2.778 7.79H39.96z" fill="#8A1A10"/><path d="M51.515 40.272h3.467a1.08 1.08 0 100-2.16h-3.467a1.08 1.08 0 000 2.16zm0-3.087h3.467a1.08 1.08 0 100-2.16h-3.467a1.08 1.08 0 000 2.16z" fill="#8A1A10"/></svg>
